packages/tokens/icons/neckMedal/size16Px.svg

<svg viewBox="0 0 16 16" fill="none" xmlns="http://www.w3.org/2000/svg" width="1em" height="1em"><rect x="2" y="3" width="2.82843" height="8.48528" rx="1.41421" transform="rotate(-45 2 3)" stroke="currentColor"/><rect width="2.82843" height="8.48528" rx="1.41421" transform="matrix(-0.707107 -0.707107 -0.707107 0.707107 14 3)" stroke="currentColor"/><path d="M8 10.6298L8.08125 10.7944C8.1905 11.0158 8.40167 11.1692 8.64595 11.2047L8.82763 11.2311L8.69617 11.3592C8.5194 11.5315 8.43874 11.7798 8.48047 12.0231L8.97327 11.9386L8.48047 12.0231L8.51151 12.204L8.34901 12.1186C8.13051 12.0037 7.86949 12.0037 7.65099 12.1186L7.4885 12.204L7.51953 12.0231C7.56126 11.7798 7.4806 11.5315 7.30383 11.3592L7.17237 11.2311L7.35405 11.2047C7.59833 11.1692 7.8095 11.0158 7.91875 10.7944L8 10.6298Z" stroke="currentColor" stroke-linejoin="round"/><circle cx="8" cy="11.5" r="3" stroke="currentColor"/></svg>

<svg xmlns="http://www.w3.org/2000/svg" fill="none" viewBox="0 0 16 16" width="1em" height="1em"><rect width="2.828" height="8.485" x="2" y="3" stroke="currentColor" rx="1.414" transform="rotate(-45 2 3)"/><rect width="2.828" height="8.485" stroke="currentColor" rx="1.414" transform="scale(-1 1) rotate(-45 -3.379 18.4)"/><path stroke="currentColor" stroke-linejoin="round" d="m8 10.63.081.164a.75.75 0 0 0 .565.41l.182.027-.132.128a.75.75 0 0 0-.216.664l.493-.084-.493.084.032.181-.163-.085a.75.75 0 0 0-.698 0l-.162.085.03-.18a.75.75 0 0 0-.215-.665l-.132-.128.182-.026a.75.75 0 0 0 .565-.41L8 10.63Z"/><circle cx="8" cy="11.5" r="3" stroke="currentColor"/></svg>
